X:1
T:Title
%%score [ ( 1 2 ) ( 3 4 ) ] { ( 5 6 ) | ( 7 8 ) }
L:1/8
Q:1/4=120
M:4/4
K:C
V:1 treble nm="Midi_74"
V:2 treble 
V:3 bass nm="Midi_74"
V:4 bass 
V:5 treble nm="Org."
V:6 treble 
V:7 bass 
V:8 bass 
V:1
 (E6 A2) | G4 c4 | B8 || (B6 e2) | d4 G4 | B4 A4 | G8 || (G6 !courtesy!=F2) | E4 A4 | G8 || %10
 (c6 f2) | e4 A4 |"^William Henry Havergal\n(1793-1870)" G4 B4 | c8 |] %14
V:2
 C8 | G4 ^F4 | G8 || G8 | G4 G4 | G4 ^F4 | G8 || C8 | C4 F4 | G8 || G8 | G4 F4 | E4 F4 | E8 |] %14
V:3
 C8 | C4 C4 | D8 || (D6 C2) | D4 B,4 | D4 (D2 C2) | B,8 || C8 | C4 C4 | C8 || (C6 B,2) | C4 C4 | %12
 G,4 (G,2 D2) | [G,C]8 |] %14
V:4
 (C,6 F,2) | E,4 A,4 | G,8 || (G,,6 C,2) | B,,4 E,4 | D,4 D,4 | G,,8 || (E,6 A,2) | G,4 F,4 | %9
 E,8 || (E,6 D,2) | C,4 F,4 | G,4 G,4 | C,8 |] %14
V:5
 E6 A2 | G4 [^Fc]4 | B8 || [DB]6 [Ce]2 | d4 G4 | B4 [^FA]4 | G8 || G6 !courtesy!=F2 | E4 A4 | G8 || %10
 c6 [Bf]2 | [ce]4 A4 | G4 B4 | c8 |] %14
V:6
 C8 | C8 | [DG]8 || G8 | [DG]4 B,4 | [DG]4 D2 C2 | [B,G]8 || C8 | C8 | [CG]8 || G8 | G4 F4 | %12
 E4 [DF]4 | [CE]8 |] %14
V:7
 x8 | x8 | x8 || x8 | x8 | x8 | x8 || x8 | x8 | x8 || G,8 | C4 C4 | C4 x4 | x8 |] %14
V:8
 C,6 F,2 | E,4 A,4 | G,8 || G,,6 C,2 | B,,4 E,4 | D,4 D,4 | G,,8 || E,6 A,2 | G,4 F,4 | E,8 || %10
 E,6 D,2 | C,4 F,4 | G,4 G,4 | C,8 |] %14

